assets/time-grey/TimeGrey9.svg

<svg xmlns="http://www.w3.org/2000/svg" data-name="Layer 1" viewBox="0 0 128 128"><path d="M103.735 23.375h-1.026a1.25 1.25 0 000 2.5h1.026a9.025 9.025 0 019.015 9.015v10.531H22.5a1.25 1.25 0 000 2.5h90.25v55.814a9.025 9.025 0 01-9.015 9.015h-79.47a9.025 9.025 0 01-9.015-9.015V34.89a9.025 9.025 0 019.015-9.015h6.776v2.291a8.333 8.333 0 1016.667 0v-7.082a8.333 8.333 0 10-16.667 0v2.291h-6.776A11.528 11.528 0 0012.75 34.89v68.845a11.528 11.528 0 0011.515 11.515h79.47a11.528 11.528 0 0011.515-11.515V34.89a11.528 11.528 0 00-11.515-11.515zm-70.194-2.291a5.833 5.833 0 1111.667 0v7.083a5.833 5.833 0 11-11.667 0z"/><path d="M54.458 25.875h25.833v2.291a8.333 8.333 0 1016.667 0v-7.082a8.333 8.333 0 10-16.667 0v2.291H54.458a1.25 1.25 0 000 2.5zm28.333-4.791a5.833 5.833 0 1111.667 0v7.083a5.833 5.833 0 11-11.667 0zM36.062 103a1.25 1.25 0 001.25-1.25v-43.5a1.25 1.25 0 10-2.5 0v20.5H25.5a1.25 1.25 0 000 2.5h9.312v20.5a1.25 1.25 0 001.25 1.25zM54.687 57a1.25 1.25 0 00-1.25 1.25v20.5h-9.6a1.25 1.25 0 000 2.5h9.6v20.5a1.25 1.25 0 102.5 0v-20.5h16.125v20.5a1.25 1.25 0 102.5 0v-43.5a1.25 1.25 0 10-2.5 0v20.5H55.937v-20.5a1.25 1.25 0 00-1.25-1.25zM91.937 57a1.25 1.25 0 00-1.25 1.25v20.5h-9.146a1.25 1.25 0 000 2.5h9.146v20.5a1.25 1.25 0 102.5 0v-20.5h9.313a1.25 1.25 0 000-2.5h-9.313v-20.5a1.25 1.25 0 00-1.25-1.25z"/></svg>

<svg id="Layer_1" data-name="Layer 1" xmlns="http://www.w3.org/2000/svg" viewBox="0 0 128 128"><title>DATE</title><path d="M103.735,23.375h-1.026a1.25,1.25,0,0,0,0,2.5h1.026a9.025,9.025,0,0,1,9.015,9.015V45.421H22.5a1.25,1.25,0,0,0,0,2.5h90.25v55.814a9.025,9.025,0,0,1-9.015,9.015H24.265a9.025,9.025,0,0,1-9.015-9.015V34.89a9.025,9.025,0,0,1,9.015-9.015h6.776v2.291a8.333,8.333,0,1,0,16.667,0V21.084a8.333,8.333,0,1,0-16.667,0v2.291H24.265A11.528,11.528,0,0,0,12.75,34.89v68.845A11.528,11.528,0,0,0,24.265,115.25h79.47a11.528,11.528,0,0,0,11.515-11.515V34.89A11.528,11.528,0,0,0,103.735,23.375ZM33.541,21.084a5.833,5.833,0,1,1,11.667,0v7.083a5.833,5.833,0,1,1-11.667,0Z"/><path d="M54.458,25.875H80.291v2.291a8.333,8.333,0,1,0,16.667,0V21.084a8.333,8.333,0,1,0-16.667,0v2.291H54.458a1.25,1.25,0,0,0,0,2.5Zm28.333-4.791a5.833,5.833,0,1,1,11.667,0v7.083a5.833,5.833,0,1,1-11.667,0Z"/><path d="M36.062,103a1.25,1.25,0,0,0,1.25-1.25V58.25a1.25,1.25,0,1,0-2.5,0v20.5H25.5a1.25,1.25,0,0,0,0,2.5h9.312v20.5A1.25,1.25,0,0,0,36.062,103Z"/><path d="M54.687,57a1.25,1.25,0,0,0-1.25,1.25v20.5h-9.6a1.25,1.25,0,0,0,0,2.5h9.6v20.5a1.25,1.25,0,1,0,2.5,0V81.25H72.062v20.5a1.25,1.25,0,1,0,2.5,0V58.25a1.25,1.25,0,1,0-2.5,0v20.5H55.937V58.25A1.25,1.25,0,0,0,54.687,57Z"/><path d="M91.937,57a1.25,1.25,0,0,0-1.25,1.25v20.5H81.541a1.25,1.25,0,0,0,0,2.5h9.146v20.5a1.25,1.25,0,1,0,2.5,0V81.25H102.5a1.25,1.25,0,0,0,0-2.5H93.187V58.25A1.25,1.25,0,0,0,91.937,57Z"/></svg>
